X:193
T: One Bottle More
N: O'Farrell's Pocket Companion v.3 (Sky ed. p.100)
N: "Irish"
M: 3/4
L: 1/8
R: waltz
Q: 250
K: G
D|G2 B2 d2|d2 cBAG| c2 e2 e2 |e4 dc|B2 d2 g2|edcBAG|
{FG}A2 D2 D2 |D4 z :|
G/A/|B2 G2 F2| E2 F2 G2 |ABcdef|g4 fe|
d2 g2 fg|agfedc|B2 G2 G2| G3B d/B/A/G/|A2 D2 D2 |D4 EF|
G2 B2 d2|g4 fe| d2 g2 f2|g2 d2 c2|B2 G2 G2|G4 z ||
